X:43
T:S\aa{} trind som en rova
T:Round as a turnip
M:2/4
L:1/16
Q:1/4=110
R:Tv\aa{}taktspolska (polska in 2/4-time)
C:Viktor Andersson, Jeppo
O:Finland
A:Jeppo, \"Osterbotten (Finland)
P:AABAABA
K:Dm
{e}a2ae f2ed|efe^c A2A2|d^cde fefg|a2ae fefg|\
a2ae f2ed|efe^c A2=Bc|d4 d3z:|
{e}fefg a2d'2|d'2a2 a3b|a2g2 g3z|ecef gagf|\
ecef gage|fefg a2eg|f4 f3z|]
